Newaita-dark/actions/16/view-categories-expenditures.svg

<svg height="16" viewBox="0 0 16 16" width="16" xmlns="http://www.w3.org/2000/svg"><path d="m2.644531 1.449219c-.730469 0-1.320312.589843-1.320312 1.320312v.664063h1.320312c0-.367188.296875-.664063.664063-.664063h9.261718c.363282 0 .660157.296875.660157.664063v4.628906h1.324219v-5.292969c0-.730469-.589844-1.320312-1.324219-1.320312zm-1.320312 5.289062v6.617188c0 .734375.589843 1.324219 1.320312 1.324219h1.324219v-1.324219h-.660156c-.367188 0-.664063-.296875-.664063-.660157v-5.957031zm0 0" fill="#e0e0e0"/><path d="m9.921875 9.386719c-.367187 0-.660156.292969-.660156.660156v3.96875c0 .367187.292969.664063.660156.664063h3.96875c.367187 0 .664063-.296876.664063-.664063v-3.96875c0-.367187-.296876-.660156-.664063-.660156zm.992187 1.324219h1.984376c.183593 0 .332031.144531.332031.328124v1.984376c0 .183593-.148438.332031-.332031.332031h-1.984376c-.183593 0-.328124-.148438-.328124-.332031v-1.984376c0-.183593.144531-.328124.328124-.328124zm0 0" fill="#ef5350"/><g fill="#e0e0e0"><path d="m1.984375 4.753906c-.367187 0-.660156.296875-.660156.664063v8.597656c0 .367187.292969.664063.660156.664063h5.953125v-1.324219h-4.960938c-.183593 0-.332031-.148438-.332031-.332031v-6.613282c0-.183594.148438-.332031.332031-.332031h5.953126c.183593 0 .332031.148437.332031.332031v1.652344h1.324219v-2.644531c0-.367188-.296876-.664063-.664063-.664063zm0 0"/><path d="m4.300781 7.402344h3.308594c.179687 0 .328125.148437.328125.332031 0 .179687-.148438.328125-.328125.328125h-3.308594c-.183593 0-.332031-.148438-.332031-.328125 0-.183594.148438-.332031.332031-.332031zm0 0"/><path d="m4.300781 9.386719h3.308594c.179687 0 .328125.148437.328125.332031 0 .179688-.148438.328125-.328125.328125h-3.308594c-.183593 0-.332031-.148437-.332031-.328125 0-.183594.148438-.332031.332031-.332031zm0 0"/><path d="m4.300781 11.371094h3.308594c.179687 0 .328125.148437.328125.332031 0 .179687-.148438.328125-.328125.328125h-3.308594c-.183593 0-.332031-.148438-.332031-.328125 0-.183594.148438-.332031.332031-.332031zm0 0"/></g></svg>

<?xml version="1.0" encoding="UTF-8"?>
<svg xmlns="http://www.w3.org/2000/svg" xmlns:xlink="http://www.w3.org/1999/xlink" width="16px" height="16px" viewBox="0 0 16 16" version="1.1">
<g id="surface1">
<path style=" stroke:none;fill-rule:nonzero;fill:rgb(87.843138%,87.843138%,87.843138%);fill-opacity:1;" d="M 2.644531 1.449219 C 1.914062 1.449219 1.324219 2.039062 1.324219 2.769531 L 1.324219 3.433594 L 2.644531 3.433594 C 2.644531 3.066406 2.941406 2.769531 3.308594 2.769531 L 12.570312 2.769531 C 12.933594 2.769531 13.230469 3.066406 13.230469 3.433594 L 13.230469 8.0625 L 14.554688 8.0625 L 14.554688 2.769531 C 14.554688 2.039062 13.964844 1.449219 13.230469 1.449219 Z M 1.324219 6.738281 L 1.324219 13.355469 C 1.324219 14.089844 1.914062 14.679688 2.644531 14.679688 L 3.96875 14.679688 L 3.96875 13.355469 L 3.308594 13.355469 C 2.941406 13.355469 2.644531 13.058594 2.644531 12.695312 L 2.644531 6.738281 Z M 1.324219 6.738281 "/>
<path style=" stroke:none;fill-rule:nonzero;fill:rgb(93.725491%,32.549021%,31.37255%);fill-opacity:1;" d="M 9.921875 9.386719 C 9.554688 9.386719 9.261719 9.679688 9.261719 10.046875 L 9.261719 14.015625 C 9.261719 14.382812 9.554688 14.679688 9.921875 14.679688 L 13.890625 14.679688 C 14.257812 14.679688 14.554688 14.382812 14.554688 14.015625 L 14.554688 10.046875 C 14.554688 9.679688 14.257812 9.386719 13.890625 9.386719 Z M 10.914062 10.710938 L 12.898438 10.710938 C 13.082031 10.710938 13.230469 10.855469 13.230469 11.039062 L 13.230469 13.023438 C 13.230469 13.207031 13.082031 13.355469 12.898438 13.355469 L 10.914062 13.355469 C 10.730469 13.355469 10.585938 13.207031 10.585938 13.023438 L 10.585938 11.039062 C 10.585938 10.855469 10.730469 10.710938 10.914062 10.710938 Z M 10.914062 10.710938 "/>
<path style=" stroke:none;fill-rule:nonzero;fill:rgb(87.843138%,87.843138%,87.843138%);fill-opacity:1;" d="M 1.984375 4.753906 C 1.617188 4.753906 1.324219 5.050781 1.324219 5.417969 L 1.324219 14.015625 C 1.324219 14.382812 1.617188 14.679688 1.984375 14.679688 L 7.9375 14.679688 L 7.9375 13.355469 L 2.976562 13.355469 C 2.792969 13.355469 2.644531 13.207031 2.644531 13.023438 L 2.644531 6.410156 C 2.644531 6.226562 2.792969 6.078125 2.976562 6.078125 L 8.929688 6.078125 C 9.113281 6.078125 9.261719 6.226562 9.261719 6.410156 L 9.261719 8.0625 L 10.585938 8.0625 L 10.585938 5.417969 C 10.585938 5.050781 10.289062 4.753906 9.921875 4.753906 Z M 1.984375 4.753906 "/>
<path style=" stroke:none;fill-rule:nonzero;fill:rgb(87.843138%,87.843138%,87.843138%);fill-opacity:1;" d="M 4.300781 7.402344 L 7.609375 7.402344 C 7.789062 7.402344 7.9375 7.550781 7.9375 7.734375 C 7.9375 7.914062 7.789062 8.0625 7.609375 8.0625 L 4.300781 8.0625 C 4.117188 8.0625 3.96875 7.914062 3.96875 7.734375 C 3.96875 7.550781 4.117188 7.402344 4.300781 7.402344 Z M 4.300781 7.402344 "/>
<path style=" stroke:none;fill-rule:nonzero;fill:rgb(87.843138%,87.843138%,87.843138%);fill-opacity:1;" d="M 4.300781 9.386719 L 7.609375 9.386719 C 7.789062 9.386719 7.9375 9.535156 7.9375 9.71875 C 7.9375 9.898438 7.789062 10.046875 7.609375 10.046875 L 4.300781 10.046875 C 4.117188 10.046875 3.96875 9.898438 3.96875 9.71875 C 3.96875 9.535156 4.117188 9.386719 4.300781 9.386719 Z M 4.300781 9.386719 "/>
<path style=" stroke:none;fill-rule:nonzero;fill:rgb(87.843138%,87.843138%,87.843138%);fill-opacity:1;" d="M 4.300781 11.371094 L 7.609375 11.371094 C 7.789062 11.371094 7.9375 11.519531 7.9375 11.703125 C 7.9375 11.882812 7.789062 12.03125 7.609375 12.03125 L 4.300781 12.03125 C 4.117188 12.03125 3.96875 11.882812 3.96875 11.703125 C 3.96875 11.519531 4.117188 11.371094 4.300781 11.371094 Z M 4.300781 11.371094 "/>
</g>
</svg>
